X: 37972
T: Sparkling Sea, The
R: jig
M: 6/8
K: Cmajor
|:gf|ecA GEC|G,CE Gce|fef age|f/g/af dgf|
ecA GEC|G,CE Gce|fef age|fdB c:|
|:ef|gec cBc|Gce gec|g^fg age|f/g/af def|
gec cBc|Gce gec|g^fg age|fdB c:|
|:GF|EGc edc|AFA fef|g^fg ag=f|edc BGF|
EGc edc|AFA ~f3|g^fg age|fdB c:|

